X:157
T:Sweet May morning
T:Madainn chiuin cheitein
R:Slow Air
S:Simon Fraser Collection
N:No.113
O:Scottish
M:6/8
L:1/8
Q:3/8=70
K:G
E/F/|G>AG G>AB|d>ec B2f|g>fg edc|B>AB G2 e/f/|g>fg edc|
G>AG e2 (3g/f/e/|dAB|G>AF E2:|
|:(3B/^c/^d/|e>^de =d>^cd|e>^de =d2 e/f/|g>fg edc|B2A G2(3d/e/f/|
g>ab edc|B>AB e2 (3g/f/e/|dAB|G>AF E2:|
